src/images/crypto-icon-svg/doge.svg

<svg xmlns="http://www.w3.org/2000/svg" width="32" height="32" viewBox="0 0 32 32">
  <g fill="none" fill-rule="evenodd">
    <circle cx="16" cy="16" r="16" fill="#C3A634"/>
    <path fill="#FFF" d="M13.2477876,14.6106443 L17.5619469,14.6106443 L17.5619469,16.8963585 L13.2477876,16.8963585 L13.2477876,21.7142857 L15.9690265,21.7142857 C17.0457281,21.7142857 17.9269877,21.5686289 18.6128319,21.2773109 C19.298676,20.9859929 19.8370187,20.5826356 20.2278761,20.0672269 C20.6187335,19.5518182 20.8842176,18.9467822 21.0243363,18.2521008 C21.164455,17.5574195 21.2345133,16.8067267 21.2345133,16 C21.2345133,15.1932733 21.164455,14.4425805 21.0243363,13.7478992 C20.8842176,13.0532178 20.6187335,12.4481818 20.2278761,11.9327731 C19.8370187,11.4173644 19.298676,11.0140071 18.6128319,10.7226891 C17.9269877,10.4313711 17.0457281,10.2857143 15.9690265,10.2857143 L13.2477876,10.2857143 L13.2477876,14.6106443 Z M10.4823009,16.8963585 L9,16.8963585 L9,14.6106443 L10.4823009,14.6106443 L10.4823009,8 L17.0309735,8 C18.240419,8 19.2876062,8.20914824 20.1725664,8.62745098 C21.0575265,9.04575373 21.7802332,9.61717658 22.340708,10.3417367 C22.9011827,11.0662968 23.3178452,11.9140941 23.590708,12.8851541 C23.8635707,13.856214 24,14.8944856 24,16 C24,17.1055144 23.8635707,18.143786 23.590708,19.1148459 C23.3178452,20.0859059 22.9011827,20.9337032 22.340708,21.6582633 C21.7802332,22.3828234 21.0575265,22.9542463 20.1725664,23.372549 C19.2876062,23.7908518 18.240419,24 17.0309735,24 L10.4823009,24 L10.4823009,16.8963585 Z"/>
  </g>
</svg>

<svg xmlns="http://www.w3.org/2000/svg" width="32" height="32"><g fill="none" fill-rule="evenodd"><circle cx="16" cy="16" r="16" fill="#C3A634"/><path fill="#FFF" d="M13.248 14.61h4.314v2.286h-4.314v4.818h2.721c1.077 0 1.958-.145 2.644-.437.686-.291 1.224-.694 1.615-1.21.39-.515.656-1.12.796-1.815.14-.695.21-1.445.21-2.252 0-.807-.07-1.557-.21-2.252a4.396 4.396 0 0 0-.796-1.815c-.391-.516-.93-.919-1.615-1.21-.686-.292-1.567-.437-2.644-.437h-2.721v4.325zm-2.766 2.286H9v-2.285h1.482V8h6.549c1.21 0 2.257.21 3.142.627.885.419 1.607.99 2.168 1.715.56.724.977 1.572 1.25 2.543.273.971.409 2.01.409 3.115a11.47 11.47 0 0 1-.41 3.115c-.272.97-.689 1.819-1.25 2.543-.56.725-1.282 1.296-2.167 1.715-.885.418-1.933.627-3.142.627h-6.549v-7.104z"/></g></svg>
